public/images/prizes/second-place.svg

<svg width="136" height="156" viewBox="0 0 136 156" fill="none" xmlns="http://www.w3.org/2000/svg">
<circle cx="68" cy="78" r="51" fill="#E4E6E9"/>
<path d="M14.8643 71.344C36.5603 56.304 47.4083 43.824 47.4083 33.904C47.4083 30.896 46.6723 28.528 45.2003 26.8C43.7923 25.072 41.5523 24.208 38.4803 24.208C32.1443 24.208 28.7843 28.528 28.4003 37.168H15.2483C15.6323 29.168 18.0643 23.12 22.5443 19.024C27.0243 14.864 32.6883 12.784 39.5363 12.784C46.5123 12.784 51.8563 14.608 55.5683 18.256C59.3443 21.84 61.2323 26.64 61.2323 32.656C61.2323 37.392 59.8243 42.16 57.0083 46.96C54.2563 51.696 50.7363 56.08 46.4483 60.112C42.1603 64.08 37.6483 67.504 32.9123 70.384H62.5763V81.424H14.8643V71.344Z" fill="#1F252A"/>
</svg>

<svg fill="none" height="156" viewBox="0 0 136 156" width="136" xmlns="http://www.w3.org/2000/svg"><circle cx="68" cy="78" fill="#e4e6e9" r="51"/><path d="m14.8643 71.344c21.696-15.04 32.544-27.52 32.544-37.44 0-3.008-.736-5.376-2.208-7.104-1.408-1.728-3.648-2.592-6.72-2.592-6.336 0-9.696 4.32-10.08 12.96h-13.152c.384-8 2.816-14.048 7.296-18.144 4.48-4.16 10.144-6.24 16.992-6.24 6.976 0 12.32 1.824 16.032 5.472 3.776 3.584 5.664 8.384 5.664 14.4 0 4.736-1.408 9.504-4.224 14.304-2.752 4.736-6.272 9.12-10.56 13.152-4.288 3.968-8.8 7.392-13.536 10.272h29.664v11.04h-47.712z" fill="#1f252a"/></svg>
